X: 1
T: The Road To Monalea
R: reel
M: 4/4
L: 1/8
K: Ddor
dcAc d3e|dcAG EGD2|cAGA cded|cAGE EDD2|
dcAc d3e|dcAG EGD2|EGAG cded|cAGE EDD2:|
|:dcAc d2cd|eaag egd2|gede c3d|egag egd2|
dcAc d2cd|eaag egd2|cG~G2 cded|cAG E D4:|